X: 36028
T: Scandinavian
R: waltz
M: 3/4
K: Eminor
D2|:"Em" E3 F GA|B2 e3e|"C" e3 f ed|"G"B4 AB|"Am"c2 cd BA|BA"G"G3 G|
[1 . "Am" AB cB AG|"D"FE D2 D2:|2 . "Am"AB "D"cB AF|"G"G4 GB||
"G"B2 BA GA|"D"AF D3 B,|"C"CD EF GA|"G"B4 AB|"Am"c2 cd cA|
"Em"BA G3 G|"C"AB cB AG|"D"FE D2 D2|"Em" E3 F GA|B2 e3e|
"C" e3 f ed|"G"B4 AB|"Am"c2 cd BA|BA"G"G3 G|"Am"AB "D"cB AF|"G"G6||

